X:15
T:Providence Reel
M:C|
L:1/8
K:D
|: "D"E3F "Em"DEFA | "D/F#"d2fd gfed | "G"edBe dB2A | "A"BA2F GFED |
"D"E3D "Em"EFAE | "D/F#"FA2d edfd | "G"edBd edBA |[1"A7"BAGFE3D:|[2"A7"BAFE "D"D4 ||
|: "D"fded fgag | "Bm"fd2d "Em"edeg | "D"fded fgag | "Bm"fgag "A7"f3e |
"D"f2ag "Em"fgfe | "F#m"dBAF "G"G3B | "F#m"AF2B "G"ABde | "A7"(3fgf eg"D"fdd2 :|
